!!!COM: Palestrina, Giovanni Perluigi da
!!!OPR: Missa In duplicibus minoribus (I)
!!!OMD: Gloria
!!!OTL: First Section
**kern	**kern	**kern	**kern	**kern
*Ibass	*Itenor	*Itenor	*Icalto	*Icant
!Bassus	!Tenor 2	!Tenor 1	!Altus	!Cantus
*clefF4	*clefGv2	*clefGv2	*clefG2	*clefG2
*k[]	*k[]	*k[]	*k[]	*k[]
*E:phr	*E:phr	*E:phr	*E:phr	*E:phr
*M4/2	*M4/2	*M4/2	*M4/2	*M4/2
=1	=1	=1	=1	=1
1E	0r	1B	1r	0r
2.A	.	1c	1e	.
4G	.	.	.	.
=2	=2	=2	=2	=2
4F	0r	1.A	1f	0r
4E	.	.	.	.
1D	.	.	.	.
.	.	.	2d	.
2E	.	2G	2c	.
=3	=3	=3	=3	=3
2F#	0r	2A	1d	0r
2.G	.	2.B	.	.
.	.	.	1e	.
8F#	.	4A	.	.
8G	.	.	.	.
2A	.	[2A	.	.
=4	=4	=4	=4	=4
0E	1B	2A]	1e	1r
.	.	4G#	.	.
.	.	4F#	.	.
.	2.e	1G#	2r	1b
.	.	.	2e	.
.	4d	.	.	.
=5	=5	=5	=5	=5
1AA	4c	2A	2e	1cc
.	4B	.	.	.
.	1A	1e	2e	.
2r	.	.	[1e	2a
2E	2B	2e	.	2g
=6	=6	=6	=6	=6
2A	2c#	2e	2e]	1a
2D	2.d	4d	2f	.
.	.	4c	.	.
1G	.	2B	2.g	[1b
.	8c	.	.	.
.	8d	.	.	.
.	2e	2E	.	.
.	.	.	4f	.
=7	=7	=7	=7	=7
0A	0c	4A	0e	2b]
.	.	4B	.	.
.	.	4c	.	4a
.	.	4d	.	4g#
.	.	2e	.	1a
.	.	[2A	.	.
=8	=8	=8	=8	=8
[0E	[0B	2A]	[0e	[0b
.	.	2G#	.	.
.	.	1G#	.	.
=9	=9	=9	=9	=9
1E_	1B_	[0G#	1e_	1b_
1E_	1B_	.	1e_	1b_
=10	=10	=10	=10	=10
0E]	0B]	0G#]	0e]	0b]
*-	*-	*-	*-	*-
!!!CDT: 1525/^1526/-1594/2/2
!!!OCY: Italia
!!!AGN: Mass (Paraphrase)
!!!AST: renaissance, vocal
!!!ASW: Gregorian Mass
!!!PWK: Masses, Book Mantuan I
!!!RNB: Cadence finals: A
!!!YOR: Le Opere Complete, v. 18, p. 42
!!!YOO: Rome, Italy: Fratelli Scalera
!!!END: 1992//
!!!EED: John Miller
!!!YEC: Copyright 2000, John Miller
!!!YEN: United States of America
!!!YEM: Rights to all derivative electronic formats reserved.
!!!YEM: Refer to licensing agreement for further details.
!!!YEM: This file must be accompanied by the licensing agreement.
!!!YEM: A copy of the licensing agreement may be found at http://www.music-cog.ohio-state.edu/HumdrumDatabases/Palestrina/license.txt
!!!EMD: converted to Humdrum by Bret Aarden
